krita/pics/svg/dark_merge-layer-below.svg

<?xml version="1.0" encoding="UTF-8" standalone="no"?>
<!-- Created with Inkscape (http://www.inkscape.org/) -->

<svg
   xmlns:dc="http://purl.org/dc/elements/1.1/"
   xmlns:cc="http://creativecommons.org/ns#"
   xmlns:rdf="http://www.w3.org/1999/02/22-rdf-syntax-ns#"
   xmlns:svg="http://www.w3.org/2000/svg"
   xmlns="http://www.w3.org/2000/svg"
   xmlns:sodipodi="http://sodipodi.sourceforge.net/DTD/sodipodi-0.dtd"
   xmlns:inkscape="http://www.inkscape.org/namespaces/inkscape"
   width="22"
   height="22"
   id="svg2"
   version="1.1"
   inkscape:version="0.92.1 r15371"
   viewBox="0 0 22 22"
   sodipodi:docname="dark_merge-layer-below.svg">
  <defs
     id="defs4" />
  <sodipodi:namedview
     id="base"
     pagecolor="#ffffff"
     bordercolor="#666666"
     borderopacity="1.0"
     inkscape:pageopacity="0.0"
     inkscape:pageshadow="2"
     inkscape:zoom="11.534679"
     inkscape:cx="-5.3181893"
     inkscape:cy="10.463133"
     inkscape:document-units="px"
     inkscape:current-layer="layer2"
     showgrid="true"
     units="px"
     borderlayer="true"
     inkscape:showpageshadow="false"
     inkscape:window-width="1884"
     inkscape:window-height="1051"
     inkscape:window-x="0"
     inkscape:window-y="0"
     inkscape:window-maximized="1">
    <sodipodi:guide
       position="2,20.000017"
       orientation="18,0"
       id="guide4066"
       inkscape:locked="false" />
    <sodipodi:guide
       position="2,2.0000174"
       orientation="0,18"
       id="guide4068"
       inkscape:locked="false" />
    <sodipodi:guide
       position="20,2.0000174"
       orientation="-18,0"
       id="guide4070"
       inkscape:locked="false" />
    <sodipodi:guide
       position="20,20.000017"
       orientation="0,-18"
       id="guide4072"
       inkscape:locked="false" />
    <sodipodi:guide
       position="3,19.000017"
       orientation="16,0"
       id="guide4074"
       inkscape:locked="false" />
    <sodipodi:guide
       position="3,3.0000174"
       orientation="0,16"
       id="guide4076"
       inkscape:locked="false" />
    <sodipodi:guide
       position="19,3.0000174"
       orientation="-16,0"
       id="guide4078"
       inkscape:locked="false" />
    <sodipodi:guide
       position="19,19.000017"
       orientation="0,-16"
       id="guide4080"
       inkscape:locked="false" />
    <inkscape:grid
       type="xygrid"
       id="grid4101" />
    <sodipodi:guide
       position="8,19.000017"
       orientation="0,-5"
       id="guide4124"
       inkscape:locked="false" />
    <sodipodi:guide
       position="11,3.0000174"
       orientation="0,4"
       id="guide4241"
       inkscape:locked="false" />
  </sodipodi:namedview>
  <metadata
     id="metadata7">
    <rdf:RDF>
      <cc:Work
         rdf:about="">
        <dc:format>image/svg+xml</dc:format>
        <dc:type
           rdf:resource="http://purl.org/dc/dcmitype/StillImage" />
        <dc:title></dc:title>
        <dc:date>2017</dc:date>
        <dc:creator>
          <cc:Agent>
            <dc:title>Timothée Giet</dc:title>
          </cc:Agent>
        </dc:creator>
        <cc:license
           rdf:resource="http://creativecommons.org/licenses/by-sa/4.0/" />
      </cc:Work>
      <cc:License
         rdf:about="http://creativecommons.org/licenses/by-sa/4.0/">
        <cc:permits
           rdf:resource="http://creativecommons.org/ns#Reproduction" />
        <cc:permits
           rdf:resource="http://creativecommons.org/ns#Distribution" />
        <cc:requires
           rdf:resource="http://creativecommons.org/ns#Notice" />
        <cc:requires
           rdf:resource="http://creativecommons.org/ns#Attribution" />
        <cc:permits
           rdf:resource="http://creativecommons.org/ns#DerivativeWorks" />
        <cc:requires
           rdf:resource="http://creativecommons.org/ns#ShareAlike" />
      </cc:License>
    </rdf:RDF>
  </metadata>
  <g
     inkscape:label="Calque 1"
     inkscape:groupmode="layer"
     id="layer1"
     transform="translate(0,-1030.3622)">
    <g
       inkscape:label="Layer 1"
       id="layer2"
       transform="translate(-4.999998,1025.3622)">
      <path
         style="fill:#373737;fill-opacity:1;fill-rule:evenodd;stroke:none;stroke-width:1px;stroke-linecap:butt;stroke-linejoin:miter;stroke-opacity:1"
         d="m 13.999998,7 4,-1.7e-5 V 11 h 3 l -5,6 -5,-6 h 3 z"
         id="path4523"
         inkscape:connector-curvature="0" />
      <path
         style="fill:#373737;fill-opacity:1;fill-rule:evenodd;stroke:none;stroke-width:1px;stroke-linecap:butt;stroke-linejoin:miter;stroke-opacity:1"
         d="m 12.999998,17 h 12 l -6,5 h -12 z"
         id="path4525"
         inkscape:connector-curvature="0"
         sodipodi:nodetypes="ccccc" />
      <path
         style="fill:#373737;fill-opacity:1;fill-rule:evenodd;stroke:none;stroke-width:1px;stroke-linecap:butt;stroke-linejoin:miter;stroke-opacity:1"
         d="M 8 15 L 2 20 L 14 20 L 20 15 L 18.541016 15 L 9.4589844 15 L 8 15 z M 8.2089844 16 L 17.291016 16 L 13.541016 19 L 4.4589844 19 L 8.2089844 16 z "
         transform="translate(4.999998,5)"
         id="path4525-5" />
    </g>
  </g>
</svg>

<!--Created with Inkscape (http://www.inkscape.org/)--><svg xmlns:dc="http://purl.org/dc/elements/1.1/" xmlns:cc="http://creativecommons.org/ns#" xmlns:rdf="http://www.w3.org/1999/02/22-rdf-syntax-ns#" xmlns="http://www.w3.org/2000/svg" xmlns:sodipodi="http://sodipodi.sourceforge.net/DTD/sodipodi-0.dtd" xmlns:inkscape="http://www.inkscape.org/namespaces/inkscape" width="22" height="22" id="svg2" version="1.1" inkscape:version="0.92.1 r15371" viewBox="0 0 22 22" sodipodi:docname="dark_merge-layer-below.svg"><sodipodi:namedview id="base" pagecolor="#ffffff" bordercolor="#666666" borderopacity="1.0" inkscape:pageopacity="0.0" inkscape:pageshadow="2" inkscape:zoom="11.534679" inkscape:cx="-5.3181893" inkscape:cy="10.463133" inkscape:document-units="px" inkscape:current-layer="layer2" showgrid="true" units="px" borderlayer="true" inkscape:showpageshadow="false" inkscape:window-width="1884" inkscape:window-height="1051" inkscape:window-x="0" inkscape:window-y="0" inkscape:window-maximized="1"><sodipodi:guide position="2,20.000017" orientation="18,0" id="guide4066" inkscape:locked="false"/><sodipodi:guide position="2,2.0000174" orientation="0,18" id="guide4068" inkscape:locked="false"/><sodipodi:guide position="20,2.0000174" orientation="-18,0" id="guide4070" inkscape:locked="false"/><sodipodi:guide position="20,20.000017" orientation="0,-18" id="guide4072" inkscape:locked="false"/><sodipodi:guide position="3,19.000017" orientation="16,0" id="guide4074" inkscape:locked="false"/><sodipodi:guide position="3,3.0000174" orientation="0,16" id="guide4076" inkscape:locked="false"/><sodipodi:guide position="19,3.0000174" orientation="-16,0" id="guide4078" inkscape:locked="false"/><sodipodi:guide position="19,19.000017" orientation="0,-16" id="guide4080" inkscape:locked="false"/><inkscape:grid type="xygrid" id="grid4101"/><sodipodi:guide position="8,19.000017" orientation="0,-5" id="guide4124" inkscape:locked="false"/><sodipodi:guide position="11,3.0000174" orientation="0,4" id="guide4241" inkscape:locked="false"/></sodipodi:namedview><metadata id="metadata7"><rdf:RDF><cc:Work><dc:format>image/svg+xml</dc:format><dc:type rdf:resource="http://purl.org/dc/dcmitype/StillImage"/><dc:title/><dc:date>2017</dc:date><dc:creator><cc:Agent><dc:title>Timothée Giet</dc:title></cc:Agent></dc:creator><cc:license rdf:resource="http://creativecommons.org/licenses/by-sa/4.0/"/></cc:Work><cc:License rdf:about="http://creativecommons.org/licenses/by-sa/4.0/"><cc:permits rdf:resource="http://creativecommons.org/ns#Reproduction"/><cc:permits rdf:resource="http://creativecommons.org/ns#Distribution"/><cc:requires rdf:resource="http://creativecommons.org/ns#Notice"/><cc:requires rdf:resource="http://creativecommons.org/ns#Attribution"/><cc:permits rdf:resource="http://creativecommons.org/ns#DerivativeWorks"/><cc:requires rdf:resource="http://creativecommons.org/ns#ShareAlike"/></cc:License></rdf:RDF></metadata><g inkscape:label="Calque 1" inkscape:groupmode="layer" id="layer1" transform="translate(0 -1030.362)"><g inkscape:label="Layer 1" id="layer2" transform="translate(-5 1025.362)"><path style="fill:#373737;fill-opacity:1;fill-rule:evenodd;stroke:none;stroke-width:1px;stroke-linecap:butt;stroke-linejoin:miter;stroke-opacity:1" d="M14 7h4v4h3l-5 6-5-6h3z" id="path4523" inkscape:connector-curvature="0"/><path style="fill:#373737;fill-opacity:1;fill-rule:evenodd;stroke:none;stroke-width:1px;stroke-linecap:butt;stroke-linejoin:miter;stroke-opacity:1" d="M13 17h12l-6 5H7z" id="path4525" inkscape:connector-curvature="0" sodipodi:nodetypes="ccccc"/><path style="fill:#373737;fill-opacity:1;fill-rule:evenodd;stroke:none;stroke-width:1px;stroke-linecap:butt;stroke-linejoin:miter;stroke-opacity:1" d="m8 15-6 5h12l6-5H8zm.209 1h9.082l-3.75 3H4.459l3.75-3z" transform="translate(5 5)" id="path4525-5"/></g></g></svg>
